Hatter-kde/actions/22/gtk-convert.svg

<svg xmlns="http://www.w3.org/2000/svg" viewBox="0 0 22 22">
  <defs id="defs3051">
    <style type="text/css" id="current-color-scheme">
      .ColorScheme-Text {
        color:#363636;
      }
      </style>
  </defs>
 <path 
     style="fill:currentColor;fill-opacity:1;stroke:none" 
     d="M 11 3 A 7.9999981 8.000001 0 0 0 3.2597656 9 L 4.2949219 9 A 7 7 0 0 1 11 4 A 7 7 0 0 1 17.308594 8 L 13.699219 8 L 13.699219 9 L 17.701172 9 L 18.699219 9 L 18.699219 8.8867188 L 18.699219 8 L 18.699219 4 L 17.699219 4 L 17.699219 6.65625 A 7.9999981 8.000001 0 0 0 11 3 z M 3.3007812 13 L 3.3007812 13.113281 L 3.3007812 14 L 3.3007812 18 L 4.3007812 18 L 4.3007812 15.34375 A 7.9999981 8.000001 0 0 0 11 19 A 7.9999981 8.000001 0 0 0 18.740234 13 L 17.705078 13 A 7 7 0 0 1 11 18 A 7 7 0 0 1 4.6914062 14 L 8.3007812 14 L 8.3007812 13 L 4.3007812 13 L 4.2988281 13 L 3.3007812 13 z "
     class="ColorScheme-Text"
     />
</svg>

<?xml version="1.0" encoding="UTF-8"?>
<svg viewBox="0 0 22 22" xmlns="http://www.w3.org/2000/svg">
 <defs id="defs3051">
  <style id="current-color-scheme" type="text/css">.ColorScheme-Text {
        color:#363636;
      }</style>
 </defs>
 <path class="ColorScheme-Text" d="m11 3a8 8 0 0 0-7.7402 6h1.0352a7 7 0 0 1 6.7051-5 7 7 0 0 1 6.3086 4h-3.6094v1h4.002 0.99805v-0.11328-0.88672-4h-1v2.6562a8 8 0 0 0-6.6992-3.6562zm-7.6992 10v0.11328 0.88672 4h1v-2.6562a8 8 0 0 0 6.6992 3.6562 8 8 0 0 0 7.7402-6h-1.0352a7 7 0 0 1-6.7051 5 7 7 0 0 1-6.3086-4h3.6094v-1h-4-0.0019531-0.99805z" fill="currentColor"/>
</svg>
